X: 06011
T: C.D.S. WALTZ
C: Bob McQuillen 20 Nov 82
B: Bob's Note Book 6 #11
%R: waltz
Z: 2021 John Chambers <jc:trillian.mit.edu>
M: 3/4
L: 1/4
K: D
de \
| fed  | Ade | fd>B | Afe  | dc>d | edB | A3- | Ade || fed | Ade | fd>B | A2d | dBd | fed  | a3- | aag |
| fa>b | afe | fdB  | A>FA | Bc>d | edB | A3- | AFA || dBd | ede | fdB  | Aag | fdf | e>de | d3- | d |]
|: de \
| f3 | e3 | fef | def | g3 | f2a | gfg | efg || aba | fga | fed | Bcd | f3 | edB | efd | cBA |
| f3 | e3 | fef | def | g3 | f2a | gfg | efg || aba | fef | dcd | efg | f3 | e3 | d3- | d |]
%%begintext align
%% Kit Campbell and her friend
%% Dierdre down at CDSS in N.Y. have kept me in stitches this
%% past year, and so I have written this waltz for the Society,
%% and I'd like to dedicate it to K & D with my very best wishes
%% always - _Thanks_ _so_ _much_- (P.S.- I can't wait for that tape*!)
%%endtext
%%text * [CDs-?]
%%begintext align
%% Join the Country Dance and Song Socety of America!
%% Write them at 505 Eighth Ave., N.Y., N.Y. 10018
%% Call them at 212-594-8833. (Tell 'em Bob sent you.)
%%endtext

%%sep 1 1 500

%%sep 1 1 500

